X:1
T:The Battle of Otterburn
M:3/4
L:1/8
K:F
 F| DG G2 G2| FG A2G-A| cA G2G-A| cd/2-e/2 f3 d|e-gf-e dc| AG A2c-d|\
 egf-e dc| AG G2 z||
